X:6632
T:Gweebarra Bridge Reel
T:Killarney Boys of Pleasure
R:Reel
S:
H:
N:
D:
Z:Adrian Scahill
M:2/2
L:1/8
K:C
dAdc ddAd|cdcd dAdc|ddAd dAdc|edcA GECD|
EGAA AGEE|DDDC Adcd|dAdd ceed|eeee edee|dcdd Addc|dcee eeed|eeed eeed|eeed cAGE|EDDC|

D3C DEFG|A2GE CDEG|A3c dced|cAGE EDDC:||\
Addc d2Ad|cAGE CDEG|ceed e3d|cAGE EDDG:||\
D D D C D E F G A A G E C D E G A A A c d c e d c A G E E D D C A d d c d d A d
c A G E C D E G c e e d e e e d c A G E E D D G



